fs/text_density_24_filled.svg

<svg viewBox="0 0 24 24" fill="none" xmlns="http://www.w3.org/2000/svg" height="1em" width="1em">
  <path d="M12.25 2C12.6642 2 13 2.33579 13 2.75V21.25C13 21.6642 12.6642 22 12.25 22C11.8358 22 11.5 21.6642 11.5 21.25V2.75C11.5 2.33579 11.8358 2 12.25 2ZM10 5H2.75C2.33579 5 2 5.33579 2 5.75C2 6.16421 2.33579 6.5 2.75 6.5H10V5ZM10 9H2.75C2.33579 9 2 9.33579 2 9.75C2 10.1642 2.33579 10.5 2.75 10.5H10V9ZM10 13H2.75C2.33579 13 2 13.3358 2 13.75C2 14.1642 2.33579 14.5 2.75 14.5H10V13ZM10 17H2.75C2.33579 17 2 17.3358 2 17.75C2 18.1642 2.33579 18.5 2.75 18.5H10V17ZM19.75 18H14.5V13.5H19.75C20.9926 13.5 22 14.5074 22 15.75C22 16.9926 20.9926 18 19.75 18ZM19.75 10.5H14.5V6H19.75C20.9926 6 22 7.00736 22 8.25C22 9.49264 20.9926 10.5 19.75 10.5Z" fill="#212121"/>
</svg>

<svg viewBox="0 0 24 24" fill="none" xmlns="http://www.w3.org/2000/svg" height="1em" width="1em">
  <path d="M12.25 2a.75.75 0 0 1 .75.75v18.5a.75.75 0 0 1-1.5 0V2.75a.75.75 0 0 1 .75-.75ZM10 5H2.75a.75.75 0 0 0 0 1.5H10V5Zm0 4H2.75a.75.75 0 0 0 0 1.5H10V9Zm0 4H2.75a.75.75 0 0 0 0 1.5H10V13Zm0 4H2.75a.75.75 0 0 0 0 1.5H10V17Zm9.75 1H14.5v-4.5h5.25a2.25 2.25 0 0 1 0 4.5Zm0-7.5H14.5V6h5.25a2.25 2.25 0 0 1 0 4.5Z" fill="#212121"/>
</svg>
